assets/sonr-icons/device-tablet.svg

<svg xmlns="http://www.w3.org/2000/svg" width="24" height="24" fill="none" viewBox="0 0 24 24"><path fill="#000" d="M6.16102 4H17.838C18.365 4 18.82 4 19.195 4.031C19.59 4.063 19.983 4.135 20.362 4.327C20.927 4.614 21.386 5.073 21.673 5.638C21.866 6.017 21.937 6.41 21.969 6.805C22 7.179 22 7.634 22 8.162V15.839C22 16.366 22 16.821 21.969 17.196C21.937 17.591 21.865 17.984 21.673 18.363C21.386 18.928 20.927 19.387 20.362 19.674C19.983 19.867 19.59 19.938 19.195 19.97C18.821 20.001 18.366 20.001 17.838 20.001H6.16102C5.63402 20.001 5.17902 20.001 4.80402 19.97C4.40902 19.938 4.01602 19.866 3.63702 19.674C3.07202 19.387 2.61302 18.928 2.32602 18.363C2.13302 17.984 2.06202 17.591 2.03002 17.196C1.99902 16.822 1.99902 16.367 1.99902 15.839V8.162C1.99902 7.635 1.99902 7.18 2.03002 6.805C2.06202 6.41 2.13302 6.017 2.32602 5.638C2.61402 5.073 3.07202 4.614 3.63702 4.327C4.01602 4.134 4.40902 4.063 4.80402 4.031C5.17802 4 5.63302 4 6.16102 4ZM4.96802 6.024C4.69702 6.046 4.59502 6.084 4.54702 6.109C4.35902 6.205 4.20602 6.358 4.11002 6.546C4.08402 6.596 4.04702 6.696 4.02502 6.967C4.00202 7.251 4.00102 7.622 4.00102 8.199V15.799C4.00102 16.376 4.00202 16.748 4.02502 17.031C4.04702 17.302 4.08502 17.403 4.11002 17.453C4.20602 17.641 4.35902 17.794 4.54702 17.89C4.59702 17.915 4.69702 17.953 4.96802 17.975C5.25202 17.998 5.62302 17.999 6.20002 17.999H17.8C18.377 17.999 18.749 17.998 19.032 17.975C19.303 17.952 19.404 17.915 19.454 17.89C19.642 17.794 19.795 17.641 19.891 17.453C19.917 17.404 19.954 17.303 19.976 17.031C19.999 16.747 20 16.376 20 15.799V8.199C20 7.622 19.999 7.25 19.976 6.967C19.953 6.696 19.916 6.595 19.891 6.546C19.795 6.358 19.642 6.205 19.454 6.109C19.405 6.083 19.304 6.046 19.032 6.024C18.749 6.001 18.377 6 17.8 6H6.20002C5.62302 6 5.25102 6.001 4.96802 6.024Z"/><path fill="#000" d="M8 15C8 14.448 8.448 14 9 14H15C15.552 14 16 14.448 16 15C16 15.552 15.552 16 15 16H9C8.448 16 8 15.552 8 15Z"/></svg>

<svg xmlns="http://www.w3.org/2000/svg" width="24" height="24" fill="none"><path fill="currentColor" d="M6.161 4h11.677c.527 0 .982 0 1.357.031.395.032.788.104 1.167.296a3 3 0 0 1 1.311 1.311c.193.379.264.772.296 1.167.031.374.031.829.031 1.357v7.677c0 .527 0 .982-.031 1.357-.032.395-.104.788-.296 1.167a3 3 0 0 1-1.311 1.311c-.379.193-.772.264-1.167.296-.374.031-.829.031-1.357.031H6.161c-.527 0-.982 0-1.357-.031-.395-.032-.788-.104-1.167-.296a3 3 0 0 1-1.311-1.311c-.193-.379-.264-.772-.296-1.167-.031-.374-.031-.829-.031-1.357V8.162c0-.527 0-.982.031-1.357.032-.395.103-.788.296-1.167a3 3 0 0 1 1.311-1.311c.379-.193.772-.264 1.167-.296C5.178 4 5.633 4 6.161 4M4.968 6.024c-.271.022-.373.06-.421.085a1 1 0 0 0-.437.437c-.026.05-.063.15-.085.421a17 17 0 0 0-.024 1.232v7.6c0 .577.001.949.024 1.232.022.271.06.372.085.422.096.188.249.341.437.437.05.025.15.063.421.085.284.023.655.024 1.232.024h11.6c.577 0 .949-.001 1.232-.024.271-.023.372-.06.422-.085.188-.096.341-.249.437-.437.026-.049.063-.15.085-.422.023-.284.024-.655.024-1.232v-7.6c0-.577-.001-.949-.024-1.232-.023-.271-.06-.372-.085-.421a1 1 0 0 0-.437-.437c-.049-.026-.15-.063-.422-.085C18.749 6.001 18.377 6 17.8 6H6.2c-.577 0-.949.001-1.232.024"/><path fill="currentColor" d="M8 15a1 1 0 0 1 1-1h6a1 1 0 0 1 0 2H9a1 1 0 0 1-1-1"/></svg>
